symbols/web/print/materialsymbolssharp/print_wght100fill1_24px.svg

<svg xmlns="http://www.w3.org/2000/svg" height="24" width="24"><path d="M16.7 8.1H7.3v-3h9.4Zm.8 3.9q.425 0 .712-.288.288-.287.288-.712t-.288-.713Q17.925 10 17.5 10t-.712.287q-.288.288-.288.713t.288.712q.287.288.712.288ZM16 19v-4.7H8V19Zm.7.7H7.3v-4H4.05V8.8h15.9v6.9H16.7Z"/></svg>

<svg xmlns="http://www.w3.org/2000/svg" height="24" width="24"><path d="M16.7 8.1H7.3V5.1H16.7ZM17.5 12Q17.925 12 18.212 11.712Q18.5 11.425 18.5 11Q18.5 10.575 18.212 10.287Q17.925 10 17.5 10Q17.075 10 16.788 10.287Q16.5 10.575 16.5 11Q16.5 11.425 16.788 11.712Q17.075 12 17.5 12ZM16 19V14.3H8V19ZM16.7 19.7H7.3V15.7H4.05V8.8H19.95V15.7H16.7Z"/></svg>
